modules/map-icons/icons/grocery-or-supermarket.svg

<svg version="1.2" baseProfile="tiny" xmlns="http://www.w3.org/2000/svg" width="50" height="50" viewBox="0 0 50 50" overflow="inherit"><circle cx="44" cy="42" r="4"/><circle cx="15" cy="42" r="4"/><path d="M47 33h-31.229l.667-1.082c.286-.464.37-1.025.233-1.553l-.651-2.506 28.983-1.506c1.099-.056 1.997-1.003 1.997-2.103v-13.25c0-1.1-.9-2-2-2h-33.881l-.391-1.503c-.229-.882-1.025-1.497-1.936-1.497h-6.792c-1.104 0-2 .896-2 2s.896 2 2 2h5.246l5.34 20.545-2.1 3.405c-.38.617-.397 1.392-.043 2.024.352.633 1.02 1.026 1.745 1.026h34.812c1.104 0 2-.896 2-2s-.896-2-2-2z"/></svg>

<svg version="1.2" baseProfile="tiny" xmlns="http://www.w3.org/2000/svg" width="50" height="50" overflow="inherit"><circle cx="44" cy="42" r="4"/><circle cx="15" cy="42" r="4"/><path d="M47 33H15.771l.667-1.082c.286-.464.37-1.025.233-1.553l-.651-2.506 28.983-1.506C46.102 26.297 47 25.35 47 24.25V11c0-1.1-.9-2-2-2H11.119l-.391-1.503A2 2 0 0 0 8.792 6H2a2 2 0 0 0 0 4h5.246l5.34 20.545-2.1 3.405a1.998 1.998 0 0 0-.043 2.024A1.997 1.997 0 0 0 12.188 37H47a2 2 0 0 0 0-4z"/></svg>
